modules/hawcons-filled/icons/icon-56-sad-face-closed-eyes.svg

<?xml version="1.0" encoding="UTF-8" standalone="no"?>
<svg width="32px" height="32px" viewBox="0 0 32 32" version="1.1" xmlns="http://www.w3.org/2000/svg" xmlns:xlink="http://www.w3.org/1999/xlink" xmlns:sketch="http://www.bohemiancoding.com/sketch/ns">
    <!-- Generator: Sketch 3.0.3 (7891) - http://www.bohemiancoding.com/sketch -->
    <title>icon 56 sad face closed eyes</title>
    <desc>Created with Sketch.</desc>
    <defs></defs>
    <g id="Page-1" stroke="none" stroke-width="1" fill="none" fill-rule="evenodd" sketch:type="MSPage">
        <g id="icon-56-sad-face-closed-eyes" sketch:type="MSArtboardGroup" fill="#929292">
            <path d="M16.5,29 C23.4035597,29 29,23.4035597 29,16.5 C29,9.59644029 23.4035597,4 16.5,4 C9.59644029,4 4,9.59644029 4,16.5 C4,23.4035597 9.59644029,29 16.5,29 Z M10,13 L10,14 L14,14 L14,13 L10,13 Z M19,13 L19,14 L23,14 L23,13 L19,13 Z M16.4969482,22 C13.5,22 12,23 12,23 C12,23 13,20 16.5,20 C20,20 21,23 21,23 C21,23 19.4938965,22 16.4969482,22 Z" id="sad-face-closed-eyes" sketch:type="MSShapeGroup"></path>
        </g>
    </g>
</svg>

<svg width="32" height="32" xmlns="http://www.w3.org/2000/svg"><path d="M16.5 29C23.404 29 29 23.404 29 16.5S23.404 4 16.5 4 4 9.596 4 16.5 9.596 29 16.5 29zM10 13v1h4v-1h-4zm9 0v1h4v-1h-4zm-2.503 9C13.5 22 12 23 12 23s1-3 4.5-3 4.5 3 4.5 3-1.506-1-4.503-1z" fill="#929292" fill-rule="evenodd"/></svg>
